src/Pure-Dark/16/symbolic/status/revolt-status-blink-symbolic.svg

<?xml version="1.0" encoding="UTF-8" standalone="no"?>
<svg
   width="16"
   height="16"
   version="1"
   id="svg3"
   sodipodi:docname="revolt-status-blink-symbolic.svg"
   inkscape:version="1.4.2 (ebf0e940d0, 2025-05-08)"
   xmlns:inkscape="http://www.inkscape.org/namespaces/inkscape"
   xmlns:sodipodi="http://sodipodi.sourceforge.net/DTD/sodipodi-0.dtd"
   xmlns="http://www.w3.org/2000/svg"
   xmlns:svg="http://www.w3.org/2000/svg">
  <defs
     id="defs3">
     <style
        id="current-color-scheme"
        type="text/css">
        .ColorScheme-Text { color:#f2f2f2; }
        .ColorScheme-NeutralText { color:#f67400; }
        .ColorScheme-PositiveText { color:#37c837; }
        .ColorScheme-NegativeText { color:#f44336; }
        .ColorScheme-Highlight { color:#3daee9; }
     </style>
  </defs>
  <sodipodi:namedview
     id="namedview3"
     pagecolor="#ffffff"
     bordercolor="#000000"
     borderopacity="0.25"
     inkscape:showpageshadow="2"
     inkscape:pageopacity="0.0"
     inkscape:pagecheckerboard="0"
     inkscape:deskcolor="#d1d1d1"
     inkscape:zoom="49.6875"
     inkscape:cx="8"
     inkscape:cy="8"
     inkscape:window-width="1920"
     inkscape:window-height="1010"
     inkscape:window-x="0"
     inkscape:window-y="0"
     inkscape:window-maximized="1"
     inkscape:current-layer="svg3" />
  <path
     id="path1"
     style="fill:currentColor"
     class="ColorScheme-Text"
     d="M 7.9941406 0 A 8 8 0 0 0 4.8515625 0.64453125 A 3 3 0 0 1 5.9628906 2.5410156 A 1 1 0 0 1 5.9960938 2.8808594 A 3 3 0 0 1 5.9960938 2.8847656 A 3 3 0 0 1 6 3 A 3 3 0 0 1 3 6 A 3 3 0 0 1 2.8886719 5.9941406 A 1 1 0 0 1 2.5214844 5.9570312 A 3 3 0 0 1 0.64648438 4.859375 A 8 8 0 0 0 -0.005859375 8 A 8 8 0 0 0 7.9941406 16 A 8 8 0 0 0 13.625 13.673828 C 13.018 13.432828 12.442734 13.163078 11.927734 12.830078 A 1 1 0 0 1 11.5 14.0625 A 1 1 0 0 1 10.134766 13.695312 A 1 1 0 0 1 10.5 12.330078 A 1 1 0 0 1 10.976562 12.197266 A 1 1 0 0 1 11.134766 12.207031 C 10.584766 11.685031 10.170781 10.9835 10.050781 10.1875 A 3 3 0 0 1 8 11 A 3 3 0 0 1 5 8 A 3 3 0 0 1 8 5 A 3 3 0 0 1 11 8 A 3 3 0 0 1 10.998047 8.0410156 C 11.128047 8.0110156 11.247844 7.997 11.339844 8 C 11.526844 8.006 11.648344 8.0374063 11.777344 8.0664062 A 1 1 0 0 1 11.806641 8.0722656 L 13.085938 8.4023438 A 1 1 0 0 1 13 8 A 1 1 0 0 1 14 7 A 1 1 0 0 1 15 8 A 1 1 0 0 1 14.605469 8.7949219 L 15.904297 9.1308594 A 8 8 0 0 0 15.994141 8 A 8 8 0 0 0 7.9941406 0 z M 8 1 A 1 1 0 0 1 9 2 A 1 1 0 0 1 8 3 A 1 1 0 0 1 7 2 A 1 1 0 0 1 8 1 z M 10.953125 1.8046875 A 1 1 0 0 1 11.5 1.9375 A 1 1 0 0 1 11.865234 3.3046875 A 1 1 0 0 1 10.5 3.6699219 A 1 1 0 0 1 10.134766 2.3046875 A 1 1 0 0 1 10.953125 1.8046875 z M 13.171875 4 A 1 1 0 0 1 14.0625 4.5 A 1 1 0 0 1 13.695312 5.8652344 A 1 1 0 0 1 12.330078 5.5 A 1 1 0 0 1 12.695312 4.1347656 A 1 1 0 0 1 13.171875 4 z M 2 7 A 1 1 0 0 1 3 8 A 1 1 0 0 1 2 9 A 1 1 0 0 1 1 8 A 1 1 0 0 1 2 7 z M 11.306641 8.9980469 L 11.306641 9 C 11.116641 8.994 11.093109 9.0970938 11.037109 9.3710938 C 10.757109 11.175094 12.391063 12.175078 14.539062 12.955078 C 14.795063 13.046078 14.816656 13.000641 14.972656 12.806641 C 15.256656 12.438641 15.425453 12.050531 15.564453 11.644531 C 15.689453 11.280531 15.788734 10.904625 15.927734 10.515625 C 16.066734 10.187625 16.016969 10.193516 15.667969 10.103516 L 11.556641 9.0390625 A 1.431 1.431 0 0 0 11.306641 8.9980469 z M 2.7792969 10 A 1 1 0 0 1 3.6699219 10.5 A 1 1 0 0 1 3.3046875 11.865234 A 1 1 0 0 1 1.9375 11.5 A 1 1 0 0 1 2.3046875 10.134766 A 1 1 0 0 1 2.7792969 10 z M 4.953125 12.197266 A 1 1 0 0 1 5.5 12.330078 A 1 1 0 0 1 5.8652344 13.695312 A 1 1 0 0 1 4.5 14.0625 A 1 1 0 0 1 4.1347656 12.695312 A 1 1 0 0 1 4.953125 12.197266 z M 8 13 A 1 1 0 0 1 9 14 A 1 1 0 0 1 8 15 A 1 1 0 0 1 7 14 A 1 1 0 0 1 8 13 z " />
  <path
     d="M3 1a2 2 0 0 0-2 2 2 2 0 0 0 2 2 2 2 0 0 0 2-2 2 2 0 0 0-2-2z"
     style="fill:currentColor"
     class="ColorScheme-NeutralText warning"
     id="path2" />
</svg>

<svg xmlns="http://www.w3.org/2000/svg" width="16" height="16" version="1"><path d="M7.994 0a8 8 0 0 0-3.142.645 3 3 0 0 1 1.11 1.896 1 1 0 0 1 .034.34 3 3 0 0 1 0 .004A3 3 0 0 1 6 3a3 3 0 0 1-3 3 3 3 0 0 1-.111-.006 1 1 0 0 1-.368-.037A3 3 0 0 1 .646 4.859 8 8 0 0 0-.006 8a8 8 0 0 0 8 8 8 8 0 0 0 5.631-2.326c-.607-.241-1.182-.511-1.697-.844a1 1 0 0 1-.428 1.232 1 1 0 0 1-1.365-.367 1 1 0 0 1 .365-1.365 1 1 0 0 1 .477-.133 1 1 0 0 1 .158.01c-.55-.522-.964-1.224-1.084-2.02A3 3 0 0 1 8 11a3 3 0 0 1-3-3 3 3 0 0 1 3-3 3 3 0 0 1 3 3 3 3 0 0 1-.002.041c.13-.03.25-.044.342-.041.187.006.308.037.437.066a1 1 0 0 1 .03.006l1.279.33A1 1 0 0 1 13 8a1 1 0 0 1 1-1 1 1 0 0 1 1 1 1 1 0 0 1-.395.795l1.3.336A8 8 0 0 0 15.994 8a8 8 0 0 0-8-8zM8 1a1 1 0 0 1 1 1 1 1 0 0 1-1 1 1 1 0 0 1-1-1 1 1 0 0 1 1-1zm2.953.805a1 1 0 0 1 .547.133 1 1 0 0 1 .365 1.367 1 1 0 0 1-1.365.365 1 1 0 0 1-.365-1.365 1 1 0 0 1 .818-.5zM13.172 4a1 1 0 0 1 .89.5 1 1 0 0 1-.367 1.365A1 1 0 0 1 12.33 5.5a1 1 0 0 1 .365-1.365A1 1 0 0 1 13.172 4zM2 7a1 1 0 0 1 1 1 1 1 0 0 1-1 1 1 1 0 0 1-1-1 1 1 0 0 1 1-1zm.78 3a1 1 0 0 1 .89.5 1 1 0 0 1-.365 1.365 1 1 0 0 1-1.368-.365 1 1 0 0 1 .368-1.365A1 1 0 0 1 2.779 10zm2.173 2.197a1 1 0 0 1 .547.133 1 1 0 0 1 .365 1.365 1 1 0 0 1-1.365.367 1 1 0 0 1-.365-1.367 1 1 0 0 1 .818-.498zM8 13a1 1 0 0 1 1 1 1 1 0 0 1-1 1 1 1 0 0 1-1-1 1 1 0 0 1 1-1z" fill="#f2f2f2"/><path class="warning" d="M3 1a2 2 0 0 0-2 2 2 2 0 0 0 2 2 2 2 0 0 0 2-2 2 2 0 0 0-2-2z" fill="#5294ef"/><path d="M11.307 9c-.19-.006-.214.097-.27.371-.28 1.804 1.354 2.804 3.502 3.584.256.091.278.046.434-.148.284-.368.452-.756.591-1.162.125-.364.225-.741.364-1.13.139-.328.089-.321-.26-.411L11.557 9.04a1.431 1.431 0 0 0-.25-.041z" fill="#f2f2f2"/></svg>
